uploads/global/teams_02.svg

<svg height="41" viewBox="0 0 41 41" width="41" xmlns="http://www.w3.org/2000/svg"><g fill="#04de47" transform="translate(4 5)"><path d="m30.5565579 0h-28.42470502c-1.17738983 0-2.13185288.95397788-2.13185288 2.13076923v28.41025637c0 1.1767914.95446305 2.1307693 2.13185288 2.1307693h28.42470502c1.1773899 0 2.1318529-.9539779 2.1318529-2.1307693v-28.41025637c0-1.17679135-.954463-2.13076923-2.1318529-2.13076923zm.7106177 30.5410256c0 .3922638-.3181544.7102565-.7106177.7102565h-28.42470502c-.39246328 0-.71061763-.3179927-.71061763-.7102565v-28.41025637c0-.39226378.31815435-.71025641.71061763-.71025641h28.42470502c.3924633 0 .7106177.31799263.7106177.71025641z"/><path d="m23.4503817 18.4666667c-1.9623164 0-3.5530882 1.5899631-3.5530882 3.551282s1.5907718 3.5512821 3.5530882 3.5512821 3.5530881-1.5899632 3.5530881-3.5512821-1.5907717-3.551282-3.5530881-3.551282zm0 5.6820512c-1.1773899 0-2.1318529-.9539778-2.1318529-2.1307692 0-1.1767913.954463-2.1307692 2.1318529-2.1307692 1.1773898 0 2.1318529.9539779 2.1318529 2.1307692-.0012534 1.1762721-.9549826 2.1295166-2.1318529 2.1307692z"/><path d="m7.31424511 12.5765103c.27749608.2772712.72731724.2772712 1.00481332 0l1.62958834-1.628618 1.62944623 1.628618c.2788313.2691674.7220477.2653179.996157-.008652.2741092-.2739699.2779606-.716961.0086563-.9956506l-1.6295883-1.62861796 1.6294462-1.62861795c.2693043-.27868961.2654529-.72168072-.0086563-.99565062-.2741093-.27396991-.7173257-.27781938-.996157-.00865194l-1.62930413 1.62861795-1.62958834-1.62861795c-.27883135-.26916744-.72204775-.26531797-.99615699.00865194-.27410923.2739699-.27796066.71696101-.00865633.99565062l1.62930409 1.62861795-1.62930409 1.62861796c-.27741229.277355-.27741229.7269475 0 1.0043026z"/><path d="m25.5822346 8.10686667v3.96749233c0 .3922638.3181543.7102564.7106176.7102564s.7106176-.3179926.7106176-.7102564v-5.68205131c-.00306-.12519699-.0401-.24720984-.1071611-.35299743-.0142541-.02436861-.0301121-.04776387-.0474693-.07003129-.0721063-.10105233-.1696849-.18123196-.2828258-.23239589h-.0009949-.0065376c-.084157-.03529101-.1743696-.05391291-.2656289-.0548318h-5.684941c-.3924633 0-.7106177.31799263-.7106177.71025641 0 .39226379.3181544.71025641.7106177.71025641h3.96951l-13.585872 13.5788241c-1.81447603-1.2903807-4.31562546-.9754329-5.75318103.7244476-1.43755558 1.6998805-1.33168079 4.2172967.24353476 5.7905981s4.09398632 1.6773414 5.79371387.2393143c1.6997276-1.4380271 2.013066-3.9381273.7207457-5.7507677zm-17.05482308 18.88287693c-1.56985311 0-2.84247051-1.2719705-2.84247051-2.8410257 0-1.5690551 1.2726174-2.8410256 2.84247051-2.8410256 1.56985308 0 2.84247048 1.2719705 2.84247048 2.8410256-.001645 1.5683736-1.2732993 2.8393815-2.84247048 2.8410257z"/></g></svg>

<?xml version="1.0" encoding="UTF-8"?>
<svg width="41px" height="41px" viewBox="0 0 41 41" version="1.1" xmlns="http://www.w3.org/2000/svg" xmlns:xlink="http://www.w3.org/1999/xlink">
    <!-- Generator: Sketch 52.4 (67378) - http://www.bohemiancoding.com/sketch -->
    <title>assets/homepage/teams_02</title>
    <desc>Created with Sketch.</desc>
    <g id="Page-1" stroke="none" stroke-width="1" fill="none" fill-rule="evenodd">
        <g id="Wunder-Careers-03-Teams" transform="translate(-40.000000, -1433.000000)" fill="#04DE47" fill-rule="nonzero">
            <g id="Enginiering-Copy" transform="translate(10.000000, 1187.000000)">
                <g id="formation" transform="translate(30.000000, 246.000000)">
                    <g id="Group-14" transform="translate(4.000000, 5.000000)">
                        <path d="M30.5565579,1.14002255e-13 L2.13185288,1.14002255e-13 C0.954463045,1.13686838e-13 3.90798505e-14,0.953977879 3.90798505e-14,2.13076923 L3.90798505e-14,30.5410256 C3.90798505e-14,31.717817 0.954463045,32.6717949 2.13185288,32.6717949 L30.5565579,32.6717949 C31.7339478,32.6717949 32.6884108,31.717817 32.6884108,30.5410256 L32.6884108,2.13076923 C32.6884108,0.953977879 31.7339478,1.15894758e-13 30.5565579,1.14002255e-13 Z M31.2671756,30.5410256 C31.2671756,30.9332894 30.9490212,31.2512821 30.5565579,31.2512821 L2.13185288,31.2512821 C1.7393896,31.2512821 1.42123525,30.9332894 1.42123525,30.5410256 L1.42123525,2.13076923 C1.42123525,1.73850545 1.7393896,1.42051282 2.13185288,1.42051282 L30.5565579,1.42051282 C30.9490212,1.42051282 31.2671756,1.73850545 31.2671756,2.13076923 L31.2671756,30.5410256 Z" id="Shape"></path>
                        <path d="M23.4503817,18.4666667 C21.4880653,18.4666667 19.8972935,20.0566298 19.8972935,22.0179487 C19.8972935,23.9792676 21.4880653,25.5692308 23.4503817,25.5692308 C25.4126981,25.5692308 27.0034698,23.9792676 27.0034698,22.0179487 C27.0034698,20.0566298 25.4126981,18.4666667 23.4503817,18.4666667 Z M23.4503817,24.1487179 C22.2729918,24.1487179 21.3185288,23.1947401 21.3185288,22.0179487 C21.3185288,20.8411574 22.2729918,19.8871795 23.4503817,19.8871795 C24.6277715,19.8871795 25.5822346,20.8411574 25.5822346,22.0179487 C25.5809812,23.1942208 24.627252,24.1474653 23.4503817,24.1487179 Z" id="Shape"></path>
                        <path d="M7.31424511,12.5765103 C7.59174119,12.8537815 8.04156235,12.8537815 8.31905843,12.5765103 L9.94864677,10.9478923 L11.578093,12.5765103 C11.8569243,12.8456777 12.3001407,12.8418282 12.57425,12.5678583 C12.8483592,12.2938884 12.8522106,11.8508973 12.5829063,11.5722077 L10.953318,9.94358974 L12.5827642,8.31497179 C12.8520685,8.03628218 12.8482171,7.59329107 12.5741079,7.31932117 C12.2999986,7.04535126 11.8567822,7.04150179 11.5779509,7.31066923 L9.94864677,8.93928718 L8.31905843,7.31066923 C8.04022708,7.04150179 7.59701068,7.04535126 7.32290144,7.31932117 C7.04879221,7.59329107 7.04494078,8.03628218 7.31424511,8.31497179 L8.9435492,9.94358974 L7.31424511,11.5722077 C7.03683282,11.8495627 7.03683282,12.2991552 7.31424511,12.5765103 Z" id="Path"></path>
                        <path d="M25.5822346,8.10686667 L25.5822346,12.074359 C25.5822346,12.4666228 25.9003889,12.7846154 26.2928522,12.7846154 C26.6853155,12.7846154 27.0034698,12.4666228 27.0034698,12.074359 L27.0034698,6.39230769 C27.0004098,6.2671107 26.9633698,6.14509785 26.8963087,6.03931026 C26.8820546,6.01494165 26.8661966,5.99154639 26.8488394,5.96927897 C26.7767331,5.86822664 26.6791545,5.78804701 26.5660136,5.73688308 L26.5650187,5.73688308 L26.5584811,5.73688308 C26.4743241,5.70159207 26.3841115,5.68297017 26.2928522,5.68205128 L20.6079112,5.68205128 C20.2154479,5.68205128 19.8972935,6.00004391 19.8972935,6.39230769 C19.8972935,6.78457148 20.2154479,7.1025641 20.6079112,7.1025641 L24.5774212,7.1025641 L10.9915492,20.6813882 C9.17707317,19.3910075 6.67592374,19.7059553 5.23836817,21.4058358 C3.80081259,23.1057163 3.90668738,25.6231325 5.48190293,27.1964339 C7.05711848,28.7697353 9.57588925,28.8737753 11.2756168,27.4357482 C12.9753444,25.9977211 13.2886828,23.4976209 11.9963625,21.6849805 L25.5822346,8.10686667 Z M8.52741152,26.9897436 C6.95755841,26.9897436 5.68494101,25.7177731 5.68494101,24.1487179 C5.68494101,22.5796628 6.95755841,21.3076923 8.52741152,21.3076923 C10.0972646,21.3076923 11.369882,22.5796628 11.369882,24.1487179 C11.368237,25.7170915 10.0965827,26.9880994 8.52741152,26.9897436 Z" id="Shape"></path>
                    </g>
                </g>
            </g>
        </g>
    </g>
</svg>
